16x16/apps/google-earth-pro.svg

<svg xmlns="http://www.w3.org/2000/svg" width="16" height="16" version="1.1">
 <path style="fill:#255fdb" d="M 5.517287,9.6663678 C 2.7900071,6.0581768 -0.01000017,8.8000019 0.72091078,11.321827 1.9763685,14.080925 4.7781942,16.00002 7.9972928,16.00002 c 2.8545532,0 5.3227412,-1.488185 6.7245632,-3.654555 -2.109097,1.973642 -5.937288,1.643641 -9.204569,-2.6790972 z"/>
 <path style="fill:#4285f4" d="M 7.9554749,7.181816 C 4.204556,1.4927108 -9.9833974e-8,4.5245368 -9.9833974e-8,8.0018183 -9.9833974e-8,9.1945487 0.26000051,10.320006 0.72636534,11.336372 0.2281823,8.9809117 2.9345529,7.1645436 5.4545595,10.545461 c 3.6590998,4.909103 7.2500175,4.045465 9.2591145,1.811823 0.542728,-0.809093 1.071821,-2.050005 1.220003,-3.2836448 l -0.0028,0.015456 C 15.070937,11.763646 11.263654,12.199102 7.9554641,7.181816 Z"/>
 <path style="fill:#91bfff" d="M 10.52639,4.6363555 C 7.7409287,0.04088888 4.2091016,0.45452632 1.8209136,2.9172597 0.68545614,4.2981726 -9.9833974e-8,6.0681771 -9.9833974e-8,7.9999999 0.25000052,4.6327187 4.3181927,2.29544 8.0000204,7.9999999 11.277301,13.077286 15.350039,11.754555 15.93004,9.1018212 l 0.0036,-0.025452 c 0.05818,-0.3645468 0.06455,-0.7127297 0.06455,-1.0872757 0,-0.1209094 0.0045,-0.2409097 -9.2e-4,-0.3600008 -1.420003,1.007275 -3.283645,0.6154562 -5.470923,-2.9927348 z"/>
 <path style="fill:#c4e1ff" d="m 10.545481,5.454539 c 2.550916,4.1009193 4.750012,3.051826 5.451832,2.1745509 C 15.970041,7.0036342 15.868222,6.398178 15.704585,5.8190854 14.515491,5.8436294 14.238218,5.6454488 13.07276,3.8636259 11.280029,1.1227098 9.0272957,-0.72547668 5.0945587,0.54452655 3.8072824,1.0472551 2.6818248,1.8727117 1.8181863,2.9208965 4.5227389,0.43179895 7.840929,1.1072552 10.545481,5.454539 Z"/>
 <path style="fill:#f5f5f5" d="m 12.893669,4.2154447 c 1.165458,1.7818233 1.87546,1.8763684 2.810916,1.6036407 C 14.752765,2.4563493 11.667303,-2.027997e-5 7.9972928,-2.027997e-5 6.9727447,-2.027997e-5 5.9918333,0.19543475 5.0918311,0.54543563 8.6072946,-0.56365809 11.100937,1.4745289 12.893669,4.2154447 Z"/>
</svg>

<svg xmlns="http://www.w3.org/2000/svg" width="16" height="16"><path style="fill:#255fdb" d="M5.517 9.666C2.79 6.058-.01 8.8.721 11.322a8.007 8.007 0 0 0 14 1.023c-2.108 1.974-5.936 1.644-9.204-2.679z"/><path style="fill:#4285f4" d="M7.955 7.182C4.205 1.492 0 4.525 0 8.002c0 1.193.26 2.318.726 3.334-.498-2.355 2.209-4.171 4.729-.79 3.659 4.909 7.25 4.045 9.259 1.811.542-.809 1.071-2.05 1.22-3.283l-.003.015c-.86 2.675-4.667 3.11-7.976-1.907z"/><path style="fill:#91bfff" d="M10.526 4.636C7.741.041 4.21.455 1.821 2.917A7.977 7.977 0 0 0 0 8c.25-3.367 4.318-5.705 8 0 3.277 5.077 7.35 3.755 7.93 1.102l.004-.026c.058-.364.064-.712.064-1.087 0-.12.005-.24 0-.36-1.42 1.007-3.284.616-5.472-2.993z"/><path style="fill:#c4e1ff" d="M10.545 5.455c2.551 4.1 4.75 3.051 5.452 2.174a7.916 7.916 0 0 0-.292-1.81c-1.19.025-1.467-.174-2.632-1.955C11.28 1.123 9.027-.726 5.095.544a8.04 8.04 0 0 0-3.277 2.377C4.523.43 7.841 1.107 10.545 5.455z"/><path style="fill:#f5f5f5" d="M12.894 4.215c1.165 1.782 1.875 1.877 2.81 1.604A8.003 8.003 0 0 0 7.998 0a8.005 8.005 0 0 0-2.905.545c3.515-1.109 6.009.93 7.802 3.67z"/></svg>
